X: 1136
T: An Bóithrín Buí
R: waltz
M: 3/4
K: Gmajor
D2|:G4FG|A4GF|G4G2|B4Bc|
d3cB2|c<A A3G|F3G A<F|D3E F<D|
G4FG|A4GF|G4G2|B4Bc|
d3cB2|c<AF2|G4G2|1 G4 D2:|2 G4Bc||
|:d3^dd2|d4cB|c4c2|d4c<A|
B3AB2|c<AG2|F3G A<F|D3E F<D|
G4FG|A4GF|G4G2|B4Bc|
d3cB2|c<A A2 F2|G6|G6:|

